X:1
T:The Green Mossy Banks of the Lea
M:3/4
L:1/8
K:G
E-F|G-B B3 A|A-B A2A-B|D-E E4| z4 EF|
M:4/4
G-B B2- B| AG-d|
M:3/4
 d3- cA-B| B6| z4 BA|B-e e3 e| d2 B2|B-d|D-E E4| z4 EF|
M:4/4
G-B B2-B-AF-A|
M:3/4
 A2 G2F-E| E6| z4||
